X: 86
T: Miss Miller of Glenlee's Strathspey
R: strathspey
B: William Shepherd "1st Collection" 1793 p.8 #6
F: http://imslp.org/wiki/File:PMLP73094-Shepherd_Collections_HMT.pdf
C: William Shepherd (17??-1812)
Z: 2012 John Chambers <jc:trillian.mit.edu>
M: C|
L: 1/16
K: Cm
G2 |\
EC3EG3 Tc4 G3c | Bd3GB3 FB3FB,3 |\
[1 EC3EG3 Tc4 G3c | B3F (GF).E.D E2C2 C2 :|\
[2 E3Gc3E F3Ac3A | G3c (ed).c.=B c2C2 C2 ||
g2 |\
e3cg3c a3cg3c | d2f2b2g2 f2d2B2g2 |\
e3cg3c d3BG3E | D3B GFED E2C2C2 ||
g2 |\
e3cg3c a3cg3c | d2f2b2g2 f2d2B2g2 |\
eg3df3 c2e2E2c2 | B2F2 (GF).E.D E2C2 C2 |]
